assets/images/Twitter.svg

<svg width="23" height="22" viewBox="0 0 23 22" fill="none" xmlns="http://www.w3.org/2000/svg">
<g clip-path="url(#clip0_1_737)">
<rect x="0.5" width="22" height="22" rx="11" fill="#1DA1F2"/>
<path d="M16.8912 8.62241C16.8912 8.74272 16.8912 8.86303 16.8912 8.96616C16.8912 12.524 14.1756 16.6318 9.22556 16.6318C7.69587 16.6318 6.2865 16.1849 5.08337 15.4287C5.28962 15.4458 5.51306 15.463 5.71931 15.463C6.974 15.463 8.14275 15.0333 9.07087 14.3115C7.88494 14.2943 6.88806 13.5037 6.5615 12.438C6.73337 12.4724 6.88806 12.4896 7.07712 12.4896C7.31775 12.4896 7.55837 12.4552 7.78181 12.3865C6.54431 12.1458 5.61619 11.063 5.61619 9.75678C5.61619 9.73959 5.61619 9.73959 5.61619 9.72241C5.97712 9.92866 6.38962 10.049 6.8365 10.0662C6.11462 9.58491 5.63337 8.75991 5.63337 7.81459C5.63337 7.31616 5.77087 6.85209 5.99431 6.45678C7.31775 8.08959 9.3115 9.15522 11.5459 9.27553C11.4943 9.08647 11.4771 8.86303 11.4771 8.65678C11.4771 7.16147 12.6802 5.95834 14.1756 5.95834C14.949 5.95834 15.6537 6.28491 16.1349 6.80053C16.7537 6.68022 17.3209 6.45678 17.8537 6.14741C17.6474 6.78334 17.2177 7.29897 16.6677 7.64272C17.2177 7.57397 17.7334 7.43647 18.2146 7.21303C17.8709 7.76303 17.424 8.24428 16.8912 8.62241Z" fill="#FEFEFE"/>
</g>
<defs>
<clipPath id="clip0_1_737">
<rect width="22" height="22" fill="white" transform="translate(0.5)"/>
</clipPath>
</defs>
</svg>

<svg width="23" height="22" fill="none" xmlns="http://www.w3.org/2000/svg"><g clip-path="url(#clip0_1_737)"><rect x=".5" width="22" height="22" rx="11" fill="#1DA1F2"/><path d="M16.891 8.622v.344c0 3.558-2.715 7.666-7.665 7.666a7.74 7.74 0 01-4.143-1.203c.207.017.43.034.636.034 1.255 0 2.424-.43 3.352-1.151a2.667 2.667 0 01-2.51-1.874 2.496 2.496 0 001.22-.052 2.675 2.675 0 01-2.165-2.63v-.034c.361.207.774.327 1.22.344a2.7 2.7 0 01-1.203-2.251c0-.499.138-.963.361-1.358a7.666 7.666 0 005.552 2.819 2.439 2.439 0 01-.069-.62 2.692 2.692 0 012.699-2.698c.773 0 1.478.327 1.959.843a5.476 5.476 0 001.719-.654 2.778 2.778 0 01-1.186 1.496 5.161 5.161 0 001.547-.43 4.924 4.924 0 01-1.324 1.41z" fill="#FEFEFE"/></g><defs><clipPath id="clip0_1_737"><path fill="#fff" transform="translate(.5)" d="M0 0h22v22H0z"/></clipPath></defs></svg>
